!!!OTL: 200 Lenzes Ankunft.
!!!COM: Fr. Silcher
!!!ODT: 1842
!!!ARE: Europa, Mitteleuropa, Deutschland
!!!SCT: B0200
!!!TXL: @@DE
!!!YEM: Copyright 1995, estate of Helmut Schaffrath.
**kern	**text
*ICvox	*
*Ivox	*
*clefG2	*
*M2/4	*
*k[f#]	*
*G:	*
!LO:TX:a:t=Lebhaft.	!
{8d	Der
=1	=1
8.g	Lenʒ
16a	iſt
8b	an-
8cc	-ge-
=2	=2
(4dd	-kom-
4ee)	.
=3	=3
4dd	-men!
8r}	.
{8d	Habt
=4	=4
8.g	ihr
16a	es
8b	nicht
8cc	ver-
=5	=5
(4dd	-nom-
4ee)	.
=6	=6
4dd	-men?
8r}	.
{8b	Es
=7	=7
8.a	ſa-
16b	-gens
8a	euch
8g	die
=8	=8
8.f#	Vö-
16b/	-ge-
8a}	-lein,
{8dd	es
=9	=9
8.a	ſa-
16b/	-gens
8a	euch
8g	die
=10	=10
8.f#	Blü-
16b	-me-
8a}	-lein:
{8d	der
=11	=11
4g	Lenʒ
8r	.
8a	der
=12	=12
4b	Lenʒ,
8r	.
8cc	der
=13	=13
8.dd	Lenʒ
16ee	iſt
8dd}	an-
{8b	-ge-
=14	=14
(4cc	-kom-
4dd)	.
=15	=15
4b	-men!
8r}	.
==	==
!!!AGN: Jahreszeiten - Lied, Fruehling
!!!GTL: Jahreszeitenlieder
!!!ONB: ESAC (Essen Associative Code) Database: BOEHME
!!!AMT: simple duple
!!!AIN: vox
!!!EED: Helmut Schaffrath
!!!EEV: 1.0
!!Mel. v. Fr. Silcher. 1842.
!!@@COMMENT:"Text von Auguſt Vulpius 1811, in deſſen "Curioſitäten". J. Bd. S. 554. Weimar. 1811."
!!@@END:
!!!Text: A. Vulpius
!!!URL-scan: https://archive.org/details/BoehmeVtLieder1895/page/n189/mode/2up
!!!ENC: Anna Maria Matuszewska
!!!EEV: 2024/24/06
*-	*-
